src/lib/packages/icons/src/assets/filled/filter-times.svg

<svg width="24" height="24" viewBox="0 0 24 24" fill="none" xmlns="http://www.w3.org/2000/svg">
<path d="M20 4.5V6.76001C20 7.16001 19.8401 7.54001 19.5601 7.82001L19.5 7.88C19.44 7.94 19.37 7.97 19.29 7.97C19.25 7.97 19.21 7.96001 19.17 7.95001C18.13 7.49001 16.91 7.36 15.66 7.66C13.62 8.15 12 9.85 11.6 11.91C11.16 14.231 12.1709 16.342 13.8719 17.511C13.9519 17.566 14 17.654 14 17.751V21L10 18V14.002C10 13.604 9.84206 13.222 9.56006 12.94L4.43994 7.82001C4.15794 7.53801 4 7.156 4 6.758V4.5C4 3.672 4.672 3 5.5 3H18.5C19.328 3 20 3.672 20 4.5ZM17 9C14.79 9 13 10.79 13 13C13 15.21 14.79 17 17 17C19.21 17 21 15.21 21 13C21 10.79 19.21 9 17 9ZM18.35 13.65C18.55 13.84 18.55 14.16 18.35 14.35C18.26 14.45 18.13 14.5 18 14.5C17.87 14.5 17.74 14.45 17.65 14.35L17 13.71L16.35 14.35C16.26 14.45 16.13 14.5 16 14.5C15.87 14.5 15.74 14.45 15.65 14.35C15.45 14.16 15.45 13.84 15.65 13.65L16.29 13L15.65 12.35C15.45 12.16 15.45 11.84 15.65 11.65C15.84 11.45 16.16 11.45 16.35 11.65L17 12.29L17.65 11.65C17.84 11.45 18.16 11.45 18.35 11.65C18.55 11.84 18.55 12.16 18.35 12.35L17.71 13L18.35 13.65Z" fill="currentColor"/>
</svg>

<svg xmlns="http://www.w3.org/2000/svg" width="24" height="24" fill="none"><path fill="currentColor" d="M20 4.5v2.26c0 .4-.16.78-.44 1.06l-.06.06c-.06.06-.13.09-.21.09-.04 0-.08-.01-.12-.02-1.04-.46-2.26-.59-3.51-.29-2.04.49-3.66 2.19-4.06 4.25-.44 2.321.57 4.432 2.272 5.601a.29.29 0 0 1 .128.24V21l-4-3v-3.998c0-.398-.158-.78-.44-1.062L4.44 7.82A1.502 1.502 0 0 1 4 6.758V4.5A1.5 1.5 0 0 1 5.5 3h13A1.5 1.5 0 0 1 20 4.5ZM17 9c-2.21 0-4 1.79-4 4s1.79 4 4 4 4-1.79 4-4-1.79-4-4-4Zm1.35 4.65c.2.19.2.51 0 .7a.47.47 0 0 1-.35.15.47.47 0 0 1-.35-.15l-.65-.64-.65.64a.47.47 0 0 1-.35.15.47.47 0 0 1-.35-.15c-.2-.19-.2-.51 0-.7l.64-.65-.64-.65c-.2-.19-.2-.51 0-.7.19-.2.51-.2.7 0l.65.64.65-.64c.19-.2.51-.2.7 0 .2.19.2.51 0 .7l-.64.65.64.65Z"/></svg>
